assets/icons/close.svg

<svg xmlns="http://www.w3.org/2000/svg"  viewBox="0 0 50 50" width="50px" height="50px"><path d="M 9.15625 6.3125 L 6.3125 9.15625 L 22.15625 25 L 6.21875 40.96875 L 9.03125 43.78125 L 25 27.84375 L 40.9375 43.78125 L 43.78125 40.9375 L 27.84375 25 L 43.6875 9.15625 L 40.84375 6.3125 L 25 22.15625 Z"/></svg>

<?xml version="1.0" encoding="UTF-8" standalone="no"?><!DOCTYPE svg PUBLIC "-//W3C//DTD SVG 1.1//EN" "http://www.w3.org/Graphics/SVG/1.1/DTD/svg11.dtd"><svg width="100%" height="100%" viewBox="0 0 50 50" version="1.1" xmlns="http://www.w3.org/2000/svg" xmlns:xlink="http://www.w3.org/1999/xlink" xml:space="preserve" xmlns:serif="http://www.serif.com/" style="fill-rule:evenodd;clip-rule:evenodd;stroke-linejoin:round;stroke-miterlimit:2;"><path d="M9.156,6.313l-2.844,2.843l15.844,15.844l-15.937,15.969l2.812,2.812l15.969,-15.937l15.937,15.937l2.844,-2.843l-15.937,-15.938l15.843,-15.844l-2.843,-2.843l-15.844,15.843l-15.844,-15.843Z" style="fill:#d94a5b;fill-rule:nonzero;"/></svg>
